local/share/icons/dracula-icons-main/scalable/apps/distributor-logo-opensuse.svg

<?xml version="1.0" encoding="UTF-8"?>
<svg xmlns="http://www.w3.org/2000/svg" xmlns:xlink="http://www.w3.org/1999/xlink" width="64" height="64" viewBox="0 0 64 64">
<path fill-rule="nonzero" fill="rgb(28.627451%, 74.901961%, 23.921569%)" fill-opacity="1" d="M 8.378906 1.324219 C 10.953125 1.292969 13.34375 2.648438 14.640625 4.871094 C 15.933594 7.09375 15.933594 9.839844 14.640625 12.0625 C 13.34375 14.285156 10.953125 15.640625 8.378906 15.609375 C 4.46875 15.5625 1.324219 12.378906 1.324219 8.464844 C 1.324219 4.554688 4.46875 1.371094 8.378906 1.324219 Z M 8.378906 1.324219 "/>
<path fill-rule="nonzero" fill="rgb(100%, 100%, 100%)" fill-opacity="1" d="M 8.46875 4.234375 C 6.128906 4.234375 4.234375 6.128906 4.234375 8.464844 C 4.234375 10.804688 6.128906 12.699219 8.46875 12.699219 C 10.804688 12.699219 12.699219 10.804688 12.699219 8.464844 C 12.699219 6.128906 10.804688 4.234375 8.46875 4.234375 Z M 8.46875 5.175781 C 9.65625 5.152344 10.765625 5.777344 11.367188 6.804688 C 11.96875 7.832031 11.96875 9.101562 11.367188 10.128906 C 10.765625 11.15625 9.65625 11.78125 8.46875 11.757812 C 7.636719 11.757812 6.839844 11.445312 6.230469 10.878906 C 6.421875 10.851562 6.722656 10.847656 7.113281 10.890625 C 7.6875 10.957031 8 10.980469 8.378906 10.949219 C 9.238281 10.886719 9.804688 10.742188 10.4375 10.4375 C 10.765625 10.277344 10.835938 10.203125 10.90625 10.011719 C 10.976562 9.828125 11 9.65625 10.964844 9.65625 C 10.953125 9.65625 10.84375 9.699219 10.714844 9.761719 C 10.230469 9.988281 9.804688 10.101562 9.4375 10.085938 C 9.054688 10.0625 8.433594 9.839844 7.6875 9.480469 L 7.335938 9.320312 L 7.070312 8.65625 L 7.320312 8.820312 C 7.804688 9.128906 8.320312 9.378906 8.863281 9.570312 C 9.507812 9.773438 10.007812 9.742188 10.523438 9.480469 C 10.707031 9.386719 11.054688 9.160156 11.054688 9.128906 C 11.054688 9.066406 10.875 8.472656 10.773438 8.203125 C 10.519531 7.527344 10.339844 7.300781 9.921875 7.101562 C 9.457031 6.878906 8.941406 6.726562 7.996094 6.511719 C 7.546875 6.414062 7.101562 6.320312 6.644531 6.261719 L 6.628906 6.820312 C 6.34375 6.734375 6.054688 6.65625 5.761719 6.585938 C 6.378906 5.703125 7.390625 5.175781 8.46875 5.175781 Z M 9.246094 7.554688 C 9.574219 7.550781 9.863281 7.777344 9.9375 8.097656 C 9.980469 8.273438 9.96875 8.398438 9.878906 8.585938 C 9.746094 8.859375 9.441406 9.007812 9.144531 8.953125 C 8.914062 8.914062 8.722656 8.765625 8.628906 8.554688 C 8.507812 8.289062 8.5625 7.9375 8.773438 7.746094 C 8.902344 7.628906 9.070312 7.5625 9.246094 7.554688 Z M 9.40625 7.921875 C 9.160156 7.921875 9.007812 8.101562 9.144531 8.230469 C 9.253906 8.335938 9.4375 8.351562 9.582031 8.277344 C 9.679688 8.226562 9.710938 8.152344 9.6875 8.054688 C 9.667969 7.984375 9.527344 7.921875 9.40625 7.921875 Z M 9.40625 7.921875 "/>
</svg>

<svg width="64" height="64" version="1.1" viewBox="0 0 16.933 16.933" xmlns="http://www.w3.org/2000/svg">
 <g transform="matrix(1.0385 0 0 1.0385 -.41232 -.32567)" stroke-width=".96296">
  <path d="m8.467 1.588a6.879 6.879 0 1 1 0 13.757 6.879 6.879 0 0 1 0-13.757z" fill="#49bf3d"/>
 </g>
 <path d="M8.467 4.233a4.233 4.233 0 1 0 0 8.467 4.233 4.233 0 0 0 0-8.467zm0 .941a3.293 3.293 0 1 1 0 6.585 3.268 3.268 0 0 1-2.235-.882c.19-.026.49-.03.882.015.573.065.887.087 1.264.059.86-.065 1.428-.207 2.058-.515.33-.16.4-.233.47-.426.069-.183.094-.353.06-.353-.013 0-.121.042-.25.103-.485.23-.91.343-1.28.324-.383-.02-1.002-.244-1.748-.603l-.353-.162-.265-.661.25.161a7.425 7.425 0 0 0 1.544.75c.642.203 1.143.175 1.66-.088.183-.093.53-.32.53-.353 0-.06-.178-.656-.28-.926-.254-.674-.433-.902-.852-1.102-.466-.222-.982-.373-1.926-.588-.45-.096-.894-.193-1.352-.25l-.015.558a15.22 15.22 0 0 0-.867-.235 3.3 3.3 0 0 1 2.705-1.41zm.779 2.381a.7.7 0 0 1 .69.544c.045.175.031.3-.058.485a.676.676 0 0 1-.735.368.687.687 0 0 1-.515-.397c-.122-.265-.065-.617.147-.809a.727.727 0 0 1 .47-.19zm.161.368c-.246 0-.4.18-.264.308.11.104.294.12.44.045.096-.049.128-.123.104-.22-.018-.073-.16-.133-.28-.133z" fill="#fff" overflow="visible"/>
</svg>
